X:1
T:Venetia, 88.68.86
T:Venetia, 88.68.86
T:London Tune Book (before 1879)
T:Public Domain Courtesy of the Cyber Hymnal™
C:London Tune Book (before 1879)
Z:Public Domain
Z:Courtesy of the Cyber Hymnal™
%%score ( 1 2 ) ( 3 4 )
L:1/8
Q:1/4=110
M:4/4
K:E
V:1 treble 
V:2 treble 
V:3 bass 
V:4 bass 
V:1
 [B,E]2 | [EG]2 [B,F]2 [EA]2 [EG]2 | [EF]2 [DF]2 E2 E2 | [Ec]2 [Dc]2 [EB]2 [EG]2 | %4
 [EA]2 [EG]2 [DF]2 [FA]2 | [EG]2 [EB]2 [EA]2 [DF]2 | E6 [DB]2 | [Ee]2 [Ad]2 [Ee]2 [EG]2 | %8
 [Ec]2 (BA) [EG]2 [DB]2 | [Ee]2 [Fd]2 [Ee]2 [EG]2 | [Ec]2 [Ec]2 [DB]2 [FA]2 | %11
 [EG]2 [=DB]2 [CA]2 [^DF]2 | E6 |] %13
V:2
 x2 | x8 | x4 E2 E2 | x8 | x8 | x8 | E6 x2 | x8 | x2 D2 x4 | x8 | x8 | x8 | E6 |] %13
V:3
 [E,G,]2 | [E,B,]2 [D,B,]2 [C,A,]2 [B,,B,]2 | [A,,C]2 (B,A,) [E,G,]2 [E,G,]2 | %3
 A,2 [F,A,]2 [G,B,]2 [E,B,]2 | [C,A,]2 [E,B,]2 [B,,B,]2 [D,B,]2 | [E,B,]2 [G,,B,]2 [A,,C]2 (B,A,) | %6
 [E,G,]6 [F,A,]2 | [E,G,]2 [F,A,]2 [G,B,]2 [E,B,]2 | [B,,A,]2 (F,B,) [E,B,]2 [A,B,]2 | %9
 [G,B,]2 B,2 [G,B,]2 [E,B,]2 | [C,B,]2 [F,^A,]2 [B,,B,]2 [D,B,]2 | %11
 [E,B,]2 [G,,E,]2 [A,,E,]2 [B,,A,]2 | [E,G,]6 |] %13
V:4
 x2 | x8 | x2 B,,2 x4 | A,2 x6 | x8 | x6 B,,2 | x8 | x8 | x2 B,,2 x4 | x2 (B,A,) x4 | x8 | x8 | %12
 x6 |] %13

